public/img/cast-stream-2.svg

<svg width="426" height="319" viewBox="0 0 426 319" fill="none" xmlns="http://www.w3.org/2000/svg">
<g clip-path="url(#clip0)">
<path d="M371.043 183.168L371.043 197.044L371.19 197.044L371.19 183.168L371.043 183.168Z" fill="#715F7A"/>
<path d="M371.043 138.619L371.043 156.731L371.19 156.731L371.19 138.619L371.043 138.619Z" fill="#715F7A"/>
<path d="M173.89 230.188L173.89 212.076L173.742 212.076L173.742 236.468L173.89 236.468L173.89 230.188Z" fill="#715F7A"/>
<path d="M371.043 197.043L371.043 197.189L469.549 197.189L469.549 196.897L469.695 196.897L469.695 183.167L371.043 183.167L371.043 197.043Z" fill="#715F7A"/>
<path d="M371.043 138.619L371.043 156.731L469.695 156.731L469.695 138.619L371.043 138.619Z" fill="#715F7A"/>
<path d="M371.043 98.7356L371.043 112.173L469.695 112.173L469.695 98.7356L371.043 98.7356Z" fill="#715F7A"/>
<path d="M301.811 186.806C302.542 186.806 302.982 185.637 303.128 185.637L304.445 187.536L313.666 197.468L371.189 197.468L371.189 182.862L322.009 182.862L322.009 156.425L371.336 156.425L371.336 138.313L322.009 138.313L322.009 111.876L371.336 111.876L371.336 98.438L272.391 98.438L272.391 197.03L293.907 197.03C296.095 193.3 298.751 189.865 301.811 186.806Z" fill="#715F7A"/>
<path d="M469.402 79.8978C464.54 74.6684 457.928 71.3953 450.814 70.6959C445.664 71.5298 440.961 74.1089 437.494 77.999C431.092 84.9496 422.326 89.2716 412.904 90.1222L412.172 90.1222C410.807 90.1951 409.439 90.1951 408.074 90.1222C397.69 89.5975 387.877 85.2219 380.557 77.853L379.386 76.5384L380.85 75.2238L390.803 66.0219C395.839 71.2378 402.599 74.4551 409.831 75.0778C415.025 74.2774 419.755 71.6322 423.15 67.6286C429.827 60.7292 438.874 56.6068 448.472 56.0896L449.204 56.0896C450.715 56.0036 452.23 56.0036 453.741 56.0896C459.521 56.4327 465.138 58.1343 470.134 61.0558L470.134 54.483C465.234 49.5854 458.75 46.5832 451.838 46.0113C446.677 46.9069 441.978 49.5351 438.519 53.4605C432.117 60.4111 423.351 64.7331 413.929 65.5837L413.197 65.5837C411.832 65.6566 410.464 65.6566 409.099 65.5837C398.102 64.8556 387.841 59.8146 380.557 51.5617L379.386 50.2472L380.85 49.0787L390.803 39.7306C395.798 45.0026 402.581 48.2307 409.831 48.7865C415.474 48.3403 420.723 45.7214 424.467 41.4834C430.858 34.5405 439.641 30.2626 449.057 29.5063L449.789 29.5063C451.154 29.4361 452.522 29.4361 453.887 29.5063C459.68 29.7802 465.313 31.4867 470.281 34.4724L470.281 26.8772C465.323 22.0846 458.861 19.1442 451.985 18.5516C446.835 19.3855 442.131 21.9646 438.665 25.8547C432.307 32.8636 423.517 37.1975 414.075 37.9779L413.343 37.9779C411.978 38.0508 410.61 38.0508 409.245 37.9779C398.326 37.5154 388.025 32.7952 380.557 24.8323C380.557 24.102 379.532 23.6638 379.386 23.6638L380.85 22.4953L390.803 13.1473C395.861 18.3094 402.619 21.4736 409.831 22.0571C414.992 21.2584 419.707 18.6731 423.15 14.754C429.526 7.76874 438.306 3.43966 447.74 2.63079L448.472 2.63079C449.837 2.56058 451.205 2.56058 452.57 2.63079C458.35 2.97384 463.967 4.67549 468.963 7.59692L468.963 0.147731L371.043 0.147736L371.043 98.4478L469.695 98.4477L469.695 80.1899L469.402 79.8978Z" fill="#715F7A"/>
<path d="M174.767 20.1664C179.651 24.9792 186.075 27.9261 192.916 28.4919C198.142 27.663 202.909 25.026 206.382 21.0427C212.79 14.1232 221.563 9.85006 230.972 9.06565L231.704 9.06565C233.069 8.99016 234.437 8.99016 235.802 9.06565C246.423 9.90212 256.321 14.7623 263.466 22.6494L264.783 23.8179L263.32 24.9864L253.22 34.3344C248.225 29.0624 241.442 25.8343 234.192 25.2785C228.998 26.1035 224.245 28.6813 220.726 32.5816C214.325 39.5322 205.558 43.8542 196.137 44.7048L195.405 44.7048C194.04 44.7803 192.671 44.7803 191.306 44.7048C185.103 44.3504 179.099 42.387 173.889 39.0084L173.889 65.4456L174.913 64.5693C179.846 69.312 186.244 72.2468 193.063 72.8948C198.288 72.0659 203.055 69.4289 206.529 65.4456C212.937 58.5261 221.71 54.2529 231.119 53.4685L231.85 53.4685C233.215 53.393 234.584 53.393 235.949 53.4685C246.518 54.3412 256.357 59.1984 263.466 67.0523L264.783 68.2208L263.32 69.3893L253.22 78.7373C248.225 73.4653 241.442 70.2372 234.192 69.6814C228.998 70.5064 224.245 73.0842 220.726 76.9846C214.325 83.9351 205.558 88.2571 196.137 89.1077L195.405 89.1077C187.8 89.8642 180.173 87.8968 173.889 83.5573L173.889 98.1636L272.541 98.1636L272.541 63.6929C269.047 63.6929 265.696 62.3079 263.226 59.8426C260.756 57.3773 259.368 54.0337 259.368 50.5473C259.368 47.0609 260.756 43.7172 263.226 41.252C265.696 38.7867 269.047 37.4017 272.541 37.4017L272.541 -0.282353L173.742 -0.282349L173.742 21.0427L174.767 20.1664Z" fill="#715F7A"/>
<path d="M146.369 36.9537C143.221 37.195 140.215 38.363 137.733 40.31C135.25 42.257 133.402 44.8953 132.423 47.8909C131.444 50.8865 131.378 54.1047 132.233 57.1379C133.087 60.1712 134.825 62.8831 137.225 64.9303C139.625 66.9775 142.58 68.2679 145.716 68.6382C148.852 69.0085 152.027 68.442 154.84 67.0103C157.653 65.5787 159.976 63.3463 161.517 60.5959C163.058 57.8456 163.746 54.7008 163.494 51.5599C163.158 47.3593 161.167 43.4631 157.957 40.7252C154.747 37.9873 150.58 36.631 146.369 36.9537Z" fill="#715F7A"/>
<path d="M109.632 57.118C106.475 57.331 103.453 58.476 100.95 60.4073C98.4463 62.3387 96.5751 64.9692 95.5738 67.9645C94.5725 70.9598 94.4863 74.1846 95.3263 77.2289C96.1663 80.2731 97.8944 82.9994 100.291 85.0611C102.688 87.1228 105.644 88.4268 108.785 88.8073C111.927 89.1878 115.11 88.6277 117.931 87.198C120.753 85.7684 123.084 83.5339 124.63 80.7786C126.175 78.0233 126.865 74.8716 126.611 71.7242C126.274 67.5508 124.303 63.6778 121.125 60.944C117.947 58.2102 113.818 56.8356 109.632 57.118Z" fill="#715F7A"/>
<path d="M109.632 12.2814C107.537 12.4252 105.491 12.9795 103.611 13.9125C101.73 14.8455 100.052 16.139 98.6726 17.7191C97.2931 19.2992 96.2389 21.135 95.5703 23.1217C94.9018 25.1083 94.6318 27.2069 94.776 29.2977C94.9202 31.3884 95.4756 33.4304 96.4105 35.3069C97.3455 37.1835 98.6417 38.8579 100.225 40.2345C101.809 41.6112 103.648 42.6631 105.639 43.3303C107.63 43.9975 109.733 44.2669 111.828 44.123C116.059 43.8325 120.002 41.8764 122.788 38.6853C125.574 35.4941 126.975 31.3292 126.684 27.1067C126.393 22.8843 124.433 18.9502 121.235 16.1699C118.037 13.3896 113.864 11.9909 109.632 12.2814Z" fill="#715F7A"/>
<path d="M289.078 216.771L289.078 218.232C289.9 227.569 294.179 236.266 301.08 242.624C305.059 246.019 307.661 250.744 308.399 255.916C308.109 263.152 305.136 270.023 300.056 275.196L309.423 285.128L310.594 286.589C310.594 286.589 310.594 286.589 311.765 285.42C319.226 278.469 323.819 268.99 324.646 258.837L324.646 254.017C323.783 244.691 319.511 236.008 312.643 229.625C308.551 226.399 305.706 221.856 304.593 216.771C305.16 209.944 308.113 203.534 312.936 198.659L304.447 187.559L303.276 186.098C303.276 186.098 303.276 186.098 301.958 187.266C298.899 190.325 296.243 193.761 294.055 197.491C291.101 202.465 289.394 208.077 289.078 213.85L289.078 216.771Z" fill="#715F7A"/>
<path d="M343.53 258.238C346.636 258.025 349.53 256.59 351.574 254.248C353.619 251.906 354.648 248.849 354.435 245.75C354.221 242.651 352.783 239.763 350.436 237.722C348.089 235.682 345.026 234.655 341.92 234.868C340.383 234.974 338.881 235.38 337.501 236.065C336.12 236.75 334.889 237.699 333.876 238.859C332.864 240.018 332.09 241.366 331.599 242.824C331.108 244.282 330.91 245.822 331.016 247.356C331.122 248.891 331.529 250.39 332.215 251.767C332.901 253.144 333.853 254.373 335.015 255.384C336.177 256.394 337.527 257.166 338.988 257.656C340.449 258.146 341.993 258.344 343.53 258.238Z" fill="#715F7A"/>
<path d="M173.739 196.888L173.739 174.832L172.714 174.832C169.547 174.614 166.368 174.614 163.201 174.832L161.005 174.832C139.071 176.847 118.697 187.013 103.921 203.315C96.0017 212.459 85.1297 218.555 73.1841 220.55C73.1841 220.55 72.3059 220.55 71.8668 220.55C55.845 219.074 40.813 212.167 29.2736 200.978L29.2736 200.247C29.2736 199.517 28.2491 199.079 28.1027 199.079L3.36647 220.988L-1.46932e-06 223.909L2.92736 226.977C19.36 244.358 41.5822 255.16 65.4266 257.358C68.594 257.579 71.7731 257.579 74.9405 257.358L76.6969 257.358C98.7629 255.366 119.283 245.206 134.22 228.876C142.373 219.617 153.497 213.473 165.689 211.494L166.86 211.494C169.15 211.343 171.448 211.343 173.739 211.494L173.739 196.888L226.578 196.888L173.739 196.888Z" fill="#715F7A"/>
<path d="M173.739 112.469C173.401 112.54 173.052 112.54 172.714 112.469C169.547 112.251 166.368 112.251 163.201 112.469L161.005 112.469C139.116 114.528 118.772 124.627 103.921 140.806C95.9924 149.992 85.1406 156.18 73.1841 158.333L71.2813 158.333C55.4316 156.746 40.6056 149.786 29.2736 138.615L29.2736 137.884C29.2736 137.884 28.2491 136.862 28.1027 136.862L3.36647 158.333L-1.46928e-06 161.4L2.92736 164.322C19.296 181.812 41.5433 192.679 65.4266 194.849C68.5941 195.069 71.773 195.069 74.9405 194.849C75.5238 194.92 76.1137 194.92 76.6969 194.849C98.7242 193.056 119.265 183.042 134.22 166.805C142.373 157.546 153.497 151.402 165.689 149.423C165.689 149.423 166.567 149.423 166.86 149.423C169.167 149.514 171.465 149.758 173.739 150.154L173.739 112.908L173.739 112.469Z" fill="#715F7A"/>
<path d="M392.121 264.228L469.55 264.228L470.135 264.228L470.135 249.183L469.55 249.183L392.121 249.183L392.121 264.228Z" fill="#715F7A"/>
<path d="M392.121 286.73L469.55 286.73L470.135 286.73L470.135 271.686L469.55 271.686L392.121 271.686L392.121 286.73Z" fill="#715F7A"/>
<path d="M392.121 241.745L469.55 241.745L470.135 241.745L470.135 226.701L469.55 226.701L392.121 226.701L392.121 241.745Z" fill="#715F7A"/>
<path d="M392.121 220.404L469.55 220.404L470.135 220.404L470.135 205.359L469.55 205.359L392.121 205.359L392.121 220.404Z" fill="#715F7A"/>
<path d="M347.331 64.121C349.166 64.13 350.983 63.7605 352.668 63.0357C354.353 62.3109 355.87 61.2464 357.124 59.9091C358.377 58.5717 359.34 56.9903 359.952 55.264C360.565 53.5377 360.813 51.7038 360.681 49.8773C360.55 48.0508 360.042 46.2711 359.188 44.6498C358.335 43.0286 357.156 41.6007 355.724 40.4559C354.291 39.311 352.638 38.4738 350.866 37.9967C349.094 37.5197 347.243 37.4131 345.428 37.6837C343.635 37.7703 341.88 38.2257 340.272 39.0213C338.664 39.8168 337.238 40.9354 336.083 42.3068C334.929 43.6783 334.071 45.273 333.563 46.9909C333.056 48.7088 332.909 50.5129 333.133 52.29C333.262 54.0698 333.745 55.8063 334.553 57.3979C335.362 58.9896 336.48 60.4045 337.843 61.5603C339.205 62.716 340.785 63.5893 342.489 64.1293C344.194 64.6693 345.989 64.8651 347.77 64.7053" fill="#715F7A"/>
<path d="M310.302 64.1228C312.9 63.8602 315.364 62.8412 317.387 61.1924C319.409 59.5436 320.901 57.3378 321.678 54.8494C322.454 52.361 322.48 49.6998 321.753 47.1967C321.025 44.6937 319.576 42.4593 317.586 40.7714C315.597 39.0835 313.153 38.0166 310.561 37.7035C307.968 37.3903 305.34 37.8447 303.004 39.0101C300.668 40.1755 298.727 42.0004 297.422 44.258C296.117 46.5156 295.506 49.1062 295.665 51.7076C295.774 53.4945 296.244 55.241 297.046 56.8423C297.849 58.4437 298.967 59.8668 300.334 61.0262C301.701 62.1857 303.288 63.0576 305.001 63.5898C306.714 64.1219 308.517 64.3032 310.302 64.1228Z" fill="#715F7A"/>
<path d="M287.029 49.9695C286.9 48.1897 286.417 46.4532 285.608 44.8616C284.8 43.2699 283.682 41.855 282.319 40.6992C280.956 39.5435 279.377 38.6702 277.672 38.1302C275.968 37.5902 274.173 37.3944 272.392 37.5542C268.898 37.5542 265.548 38.9392 263.077 41.4045C260.607 43.8698 259.219 47.2134 259.219 50.6998C259.219 54.1863 260.607 57.5299 263.077 59.9952C265.548 62.4605 268.898 63.8455 272.392 63.8455C273.171 63.9226 273.955 63.9226 274.734 63.8455C276.512 63.7178 278.246 63.2353 279.834 62.4266C281.421 61.6178 282.83 60.4992 283.977 59.1372C285.123 57.7751 285.984 56.1972 286.508 54.497C287.033 52.7968 287.21 51.0089 287.029 49.2392" fill="#715F7A"/>
<path d="M173.885 236.479L172.715 236.479C169.494 236.479 166.274 236.479 163.201 236.479C163.201 236.479 162.03 236.479 161.444 236.479C139.375 238.348 118.829 248.469 103.921 264.815C95.9776 273.957 85.1249 280.094 73.1841 282.196C73.1841 282.196 73.1841 282.196 72.0132 282.196C55.9398 280.753 40.8511 273.844 29.2736 262.624L29.2736 261.894L26.7854 260.579L3.36647 282.635L-1.4757e-06 285.41L2.92736 288.331C5.19037 290.703 7.58481 292.946 10.0994 295.05C25.3853 308.912 44.8396 317.335 65.4266 319.004C68.594 319.225 71.7731 319.225 74.9405 319.004L76.697 319.004C96.3346 317.45 114.838 309.198 129.097 295.634L134.22 289.792C142.373 280.533 153.497 274.389 165.689 272.41L166.86 272.41C169.147 272.188 171.451 272.188 173.739 272.41L173.739 236.479L173.885 236.479Z" fill="#715F7A"/>
<path d="M206.672 164.035L206.672 196.899L226.139 196.899L239.458 196.899L239.458 164.035L206.672 164.035Z" fill="#715F7A"/>
<path d="M206.675 164.031L206.675 131.167L173.742 131.167L173.742 149.717L173.742 164.031L206.675 164.031Z" fill="#715F7A"/>
<path d="M239.457 131.167L239.457 164.031L272.39 164.031L272.39 131.167L239.457 131.167Z" fill="#715F7A"/>
<path d="M206.523 98.304L206.523 131.168L239.456 131.168L239.456 98.304L206.523 98.304Z" fill="#715F7A"/>
<path d="M206.672 230.052L206.672 262.916L239.605 262.916L239.605 230.052L206.672 230.052Z" fill="#715F7A"/>
<path d="M206.669 230.187L206.669 197.324L173.883 197.324L173.883 212.076L173.883 230.188L206.669 230.187Z" fill="#715F7A"/>
<path d="M272.392 230.187L272.392 197.324L239.605 197.324L239.605 230.188L272.392 230.187Z" fill="#715F7A"/>
<path d="M206.669 263.057L173.883 263.057L173.883 273.72L173.883 295.775L206.669 295.775L206.669 263.057Z" fill="#715F7A"/>
<path d="M239.605 263.057L239.605 295.775L272.392 295.775L272.392 295.483L272.392 263.057L239.605 263.057Z" fill="#715F7A"/>
</g>
<defs>
<clipPath id="clip0">
<rect width="319" height="667" fill="white" transform="translate(0 319) rotate(-90)"/>
</clipPath>
</defs>
</svg>

<svg width="426" height="319" fill="none" xmlns="http://www.w3.org/2000/svg"><g clip-path="url(#clip0)" fill="#715F7A"><path d="M371.043 183.168v13.876h.147v-13.876h-.147zm0-44.549v18.112h.147v-18.112h-.147zM173.89 230.188v-18.112h-.148v24.392h.148v-6.28z"/><path d="M371.043 197.043v.146h98.506v-.292h.146v-13.73h-98.652v13.876zm0-58.424v18.112h98.652v-18.112h-98.652zm0-39.883v13.437h98.652V98.736h-98.652z"/><path d="M301.811 186.806c.731 0 1.171-1.169 1.317-1.169l1.317 1.899 9.221 9.932h57.523v-14.606h-49.18v-26.437h49.327v-18.112h-49.327v-26.437h49.327V98.438h-98.945v98.592h21.516a50.8 50.8 0 017.904-10.224z"/><path d="M469.402 79.898a29.294 29.294 0 00-18.588-9.202 22.7 22.7 0 00-13.32 7.303 38.085 38.085 0 01-24.59 12.123h-.732a38.421 38.421 0 01-4.098 0 41.756 41.756 0 01-27.517-12.269l-1.171-1.315 1.464-1.314 9.953-9.202a30.03 30.03 0 0019.028 9.056 21.82 21.82 0 0013.319-7.45 38.09 38.09 0 0125.322-11.538h.732a39.924 39.924 0 014.537 0 36.795 36.795 0 0116.393 4.966v-6.573a29.298 29.298 0 00-18.296-8.472 22.99 22.99 0 00-13.319 7.45 38.085 38.085 0 01-24.59 12.123h-.732a38.421 38.421 0 01-4.098 0 41.746 41.746 0 01-28.542-14.022l-1.171-1.315 1.464-1.168 9.953-9.348a29.296 29.296 0 0019.028 9.055 21.825 21.825 0 0014.636-7.303 37.503 37.503 0 0124.59-11.977h.732c1.365-.07 2.733-.07 4.098 0a35.038 35.038 0 0116.394 4.966v-7.595a30.036 30.036 0 00-18.296-8.325 22.698 22.698 0 00-13.32 7.303 37.352 37.352 0 01-24.59 12.123h-.732a38.421 38.421 0 01-4.098 0 41.752 41.752 0 01-28.688-13.146c0-.73-1.025-1.168-1.171-1.168l1.464-1.169 9.953-9.348a30.03 30.03 0 0019.028 8.91 22.26 22.26 0 0013.319-7.303 37.646 37.646 0 0124.59-12.123h.732c1.365-.07 2.733-.07 4.098 0a36.795 36.795 0 0116.393 4.966V.147h-97.92v98.3h98.652V80.19l-.293-.292zM174.767 20.166a29.297 29.297 0 0018.149 8.326 22.551 22.551 0 0013.466-7.45 37.793 37.793 0 0124.59-11.976h.732a37.105 37.105 0 014.098 0 41.75 41.75 0 0127.664 13.583l1.317 1.169-1.463 1.168-10.1 9.348a29.296 29.296 0 00-19.028-9.056 22.994 22.994 0 00-13.466 7.304 38.083 38.083 0 01-24.589 12.123h-.732a35.762 35.762 0 01-21.516-5.696v26.437l1.024-.877a30.328 30.328 0 0018.15 8.326 22.557 22.557 0 0013.466-7.45 37.793 37.793 0 0124.59-11.976h.731a37.118 37.118 0 014.099 0 41.748 41.748 0 0127.517 13.583l1.317 1.169-1.463 1.168-10.1 9.348a29.296 29.296 0 00-19.028-9.056 22.994 22.994 0 00-13.466 7.304 38.083 38.083 0 01-24.589 12.123h-.732a32.25 32.25 0 01-21.516-5.55v14.606h98.652V63.693a13.186 13.186 0 01-9.315-3.85 13.133 13.133 0 01-3.858-9.296c0-3.486 1.388-6.83 3.858-9.295a13.186 13.186 0 019.315-3.85V-.282h-98.799v21.325l1.025-.877zm-28.398 16.788a15.97 15.97 0 00-8.636 3.356 15.918 15.918 0 00-5.31 7.58 15.888 15.888 0 00-.19 9.248 15.912 15.912 0 004.992 7.792 15.983 15.983 0 0017.615 2.08 15.94 15.94 0 006.677-6.414 15.885 15.885 0 001.977-9.036 15.908 15.908 0 00-5.537-10.835 15.976 15.976 0 00-11.588-3.771zm-36.737 20.164a15.972 15.972 0 00-8.682 3.29 15.92 15.92 0 00-5.376 7.556 15.889 15.889 0 00-.248 9.265 15.917 15.917 0 004.965 7.832 15.981 15.981 0 0017.64 2.137 15.94 15.94 0 006.699-6.42 15.898 15.898 0 00-3.505-19.834 15.976 15.976 0 00-11.493-3.826zm0-44.837a16.011 16.011 0 00-10.96 5.438 15.95 15.95 0 00-3.896 11.579 15.934 15.934 0 005.449 10.936 16.004 16.004 0 0011.603 3.889 16.005 16.005 0 0010.96-5.438 15.938 15.938 0 00-1.553-22.515 16.013 16.013 0 00-11.603-3.889zm179.446 204.49v1.461a37.658 37.658 0 0012.002 24.392 21.457 21.457 0 017.319 13.292 29.185 29.185 0 01-8.343 19.28l9.367 9.932 1.171 1.461 1.171-1.169a40.866 40.866 0 0012.881-26.583v-4.82a38.091 38.091 0 00-12.003-24.392 22.494 22.494 0 01-8.05-12.854 29.187 29.187 0 018.343-18.112l-8.489-11.1-1.171-1.461-1.318 1.168a50.838 50.838 0 00-7.903 10.225 35.876 35.876 0 00-4.977 16.359v2.921zm54.452 41.467c3.106-.213 6-1.648 8.044-3.99a11.7 11.7 0 002.861-8.498 11.708 11.708 0 00-3.999-8.028 11.756 11.756 0 00-16.56 1.137 11.713 11.713 0 00-2.277 3.965 11.699 11.699 0 003.416 12.56 11.753 11.753 0 008.515 2.854zm-169.791-61.35v-22.056h-1.025a69.27 69.27 0 00-9.513 0h-2.196a87.892 87.892 0 00-57.084 28.483 51.989 51.989 0 01-30.737 17.235h-1.317a70.472 70.472 0 01-42.593-19.572v-.731c0-.73-1.025-1.168-1.171-1.168L3.366 220.988 0 223.909l2.927 3.068a98.443 98.443 0 0062.5 30.381c3.167.221 6.346.221 9.513 0h1.757a88.771 88.771 0 0057.523-28.482 53.308 53.308 0 0131.469-17.382h1.171a52.287 52.287 0 016.879 0v-14.606h52.839-52.839z"/><path d="M173.739 112.469a2.493 2.493 0 01-1.025 0 69.27 69.27 0 00-9.513 0h-2.196a88.771 88.771 0 00-57.084 28.337 53.01 53.01 0 01-30.737 17.527h-1.903a69.735 69.735 0 01-42.007-19.718v-.731s-1.025-1.022-1.171-1.022L3.366 158.333 0 161.4l2.927 2.922a97.709 97.709 0 0062.5 30.527c3.167.22 6.346.22 9.513 0a7.268 7.268 0 001.757 0 87.898 87.898 0 0057.523-28.044 53.308 53.308 0 0131.469-17.382h1.171c2.307.091 4.605.335 6.879.731v-37.685zm218.382 151.759h78.014v-15.045h-78.014v15.045zm0 22.502h78.014v-15.044h-78.014v15.044zm0-44.985h78.014v-15.044h-78.014v15.044zm0-21.341h78.014v-15.045h-78.014v15.045zm-44.79-156.283a13.341 13.341 0 009.793-4.212 13.29 13.29 0 003.557-10.032 13.294 13.294 0 00-9.815-11.88 13.347 13.347 0 00-5.438-.313 13.045 13.045 0 00-9.345 4.623 12.984 12.984 0 00-2.95 9.983 13.43 13.43 0 004.71 9.27 13.471 13.471 0 009.927 3.145m-37.468-.582a13.338 13.338 0 007.085-2.93 13.27 13.27 0 00.199-20.421 13.345 13.345 0 00-14.582-1.761 13.309 13.309 0 00-5.582 5.247 13.267 13.267 0 002.912 16.768 13.327 13.327 0 009.968 3.097zM287.029 49.97a13.425 13.425 0 00-4.71-9.27 13.476 13.476 0 00-9.927-3.146 13.188 13.188 0 00-9.315 3.85 13.133 13.133 0 00-3.858 9.296c0 3.486 1.388 6.83 3.858 9.295a13.188 13.188 0 009.315 3.85 11.75 11.75 0 002.342 0 13.33 13.33 0 009.243-4.708 13.287 13.287 0 003.052-9.898m-113.144 187.24h-12.441a87.89 87.89 0 00-57.523 28.336 52.856 52.856 0 01-30.737 17.381h-1.17a70.466 70.466 0 01-42.74-19.572v-.73l-2.489-1.315-23.419 22.056L0 285.41l2.927 2.921a87.653 87.653 0 007.172 6.719 93.624 93.624 0 0055.328 23.954c3.167.221 6.346.221 9.513 0h1.757a85.853 85.853 0 0052.4-23.37l5.123-5.842a53.308 53.308 0 0131.469-17.382h1.171a35.61 35.61 0 016.879 0v-35.931h.146zm32.787-72.444v32.864h32.786v-32.864h-32.786zm.003-.004v-32.864h-32.933v32.864h32.933zm32.782-32.864v32.864h32.933v-32.864h-32.933z"/><path d="M206.523 98.304v32.864h32.933V98.304h-32.933zm.149 131.748v32.864h32.933v-32.864h-32.933zm-.003.135v-32.863h-32.786v32.864l32.786-.001zm65.723 0v-32.863h-32.787v32.864l32.787-.001zm-65.723 32.87h-32.786v32.718h32.786v-32.718zm32.936 0v32.718h32.787v-32.718h-32.787z"/></g><defs><clipPath id="clip0"><path fill="#fff" transform="matrix(0 -1 1 0 0 319)" d="M0 0h319v667H0z"/></clipPath></defs></svg>
